X: 97
M: 2/4
L: 1/8
K: G
[| d B B2 | c A A2 | G A B c | d d d2 |
d B B2 | c A A2 | G B d d | B2 z2 |
d B B2 | c A A2 | G B d d | B2 z2 |]


